build/img/icons/piano.svg

<!-- Generated by IcoMoon.io -->
<svg version="1.1" xmlns="http://www.w3.org/2000/svg" width="448" height="448" viewBox="0 0 448 448">
<g id="icomoon-ignore">
</g>
<path fill="#000" d="M420 0h-392c-15.477 0-28 12.523-28 28v392c0 15.477 12.523 28 28 28h392c15.477 0 28-12.523 28-28v-392c0-15.477-12.523-28-28-28zM105 434h-77c-7.728 0-14-6.272-14-14v-392c0-7.728 4.487-14 14-14h49v273c0 3.871 3.129 7 7 7h21v140zM217 434h-98v-140h21c3.871 0 7-3.129 7-7v-273h42v273c0 3.871 3.129 7 7 7h21v140zM329 434h-98v-140h21c3.871 0 7-3.129 7-7v-273h42v273c0 3.871 3.129 7 7 7h21v140zM434 420c0 7.728-6.272 14-14 14h-77v-140h21c3.871 0 7-3.129 7-7v-273h49c7.112 0 14 6.272 14 14v392z"></path>
</svg>

<svg xmlns="http://www.w3.org/2000/svg" width="448" height="448"><path d="M420 0H28C12.523 0 0 12.523 0 28v392c0 15.477 12.523 28 28 28h392c15.477 0 28-12.523 28-28V28c0-15.477-12.523-28-28-28zM105 434H28c-7.728 0-14-6.272-14-14V28c0-7.728 4.487-14 14-14h49v273c0 3.871 3.129 7 7 7h21v140zm112 0h-98V294h21c3.871 0 7-3.129 7-7V14h42v273c0 3.871 3.129 7 7 7h21v140zm112 0h-98V294h21c3.871 0 7-3.129 7-7V14h42v273c0 3.871 3.129 7 7 7h21v140zm105-14c0 7.728-6.272 14-14 14h-77V294h21c3.871 0 7-3.129 7-7V14h49c7.112 0 14 6.272 14 14v392z"/></svg>
